X:351
T:Hija mia querida
Z:Jack Campin, http://www.campin.me.uk/
F:Jack Campin's Nine-Note Tunebook
% last edit 06-10-2014
M:2/4
L:1/8
Q:1/4=180
K:DMin
 D2  E2|F2 G2 | A4    | B4    | A4     |A2 B2|A2G2|F2E2|D4 |
 D2  E2|F2 G2 | A4    | (B2A2)| G4-    |G4-  |G4- |G4  |
 A4-   |A2 F2 | G4-   | G2 E2 | F4-    |F2 E2|D4  |
 B4    |A2 G2 | G2  F2| F4    | E4     |D4-  |D4- |D4- |D4 |
(A2>>B2|A2)F2 |(G2>>A2| G2) E2|(F2>>G2 |F2)E2|D4  |
 B4    |A2(GA)| G2  F2| (F2EF)|(E2  D2)|D4-  |D4- |D4- |D4|]

